X:1
T:Title
%%score { ( 1 3 ) | 2 }
L:1/8
M:4/4
K:F
V:1 treble nm="Grand Piano"
V:3 treble 
V:2 bass 
V:1
 z4 z[Q:1/4=94] C F>B | A6 z2 | c6 z2 | z E E>E EA c>B | G6 z2 | A6 z2 | c6 z2 | %7
 e3 [CE] [EAc]2 [D_A=B]2 | [CA]4- [CA]A _A>=A | B6 z2 | F6 z2 | d6 z2 | [EG]4- [EG]C F>B | A6 z2 | %14
 c6 z2 |[M:5/4] f3 F [Fd]3 [Ec]3 |[M:5/8] F-F- F3 |] %17
V:2
 z8 | z [F,C] [F,C]>[F,C] .[F,C]2 z2 | z [F,A,] [F,A,]>[F,A,] .[F,A,]2 z2 | %3
 z [C,C] [C,C]>[C,C] .[C,C]2 z2 | z [C,C] [C,C]>[C,C] .[C,C]2 z2 | z [F,C] [F,C]>[F,C] .[F,C]2 z2 | %6
 z [F,A,] [F,A,]>[F,A,] .[F,A,]2 z2 | z2 z E, E,2 E,2 | A,,6 z2 | %9
 z [C,G,] [C,G,]>[C,G,] .[C,G,]2 z2 | z [F,A,] [F,A,]>[F,A,] .[F,A,]2 z2 | %11
 z B, B,>B,[K:treble] B,[A,CF][K:bass] [G,CE]>[F,CF] | [C,C]6 z2 | z [F,C] [F,C]>[F,C] .[F,C]2 z2 | %14
 z [F,A,] [F,A,]>[F,A,] .[F,A,]2 z2 |[M:5/4] z2 z [D,A,] [B,,B,]3 [C,B,]3 | %16
[M:5/8] [F,A,]-[F,A,]- [F,A,]3 |] %17
V:3
 x8 | z F F>F FE F>d | z F F>F FA c>B | G6 z2 | z E E>E EC F>B | z F F>F FE F>d | z F F>F F=B c>d | %7
 x8 | x8 | z E E>E EE A>G | z C C>C CA B>c | z F F>F Fc B>A | x8 | z F F>F FE G>d | %14
 z F F>F Fc =B>c |[M:5/4] x10 |[M:5/8] x5 |] %17

